X:10
T:Threshing the Barley
C:Traditional
M:6/8
L:1/8
Q:1/4=60
K:G
|: d/c/ | BAB GBd | cBc ABc | Bcd cBA | Gge d2 c |
BAB GBd | cBc ABc | Bcd cAF | GFG G2 :|
|: c | Bcd def | {a}gfe dBG | Bcd def | age d2 d |
gag gdB | cdc cAF | GBd cAF | GAG G2 :|

% from O'Neill's
